static/img/kroki/2a1a572ba5b35df6df430ac8e6ff6eeb.svg

<?xml version="1.0" encoding="us-ascii" standalone="no"?><svg xmlns="http://www.w3.org/2000/svg" xmlns:xlink="http://www.w3.org/1999/xlink" contentStyleType="text/css" height="374px" preserveAspectRatio="none" style="width:393px;height:374px;" version="1.1" viewBox="0 0 393 374" width="393px" zoomAndPan="magnify"><defs/><g><!--class autoscaling_group--><g id="elem_autoscaling_group"><rect codeLine="23" fill="#3D176E" height="39.7891" id="autoscaling_group" rx="2.5" ry="2.5" style="stroke:#000D19;stroke-width:0.5;" width="194" x="7" y="167.79"/><ellipse cx="22" cy="187.6845" fill="#ADD1B2" rx="11" ry="11" style="stroke:#181818;stroke-width:1.0;"/><path d="M24.9688,193.3252 Q24.3906,193.622 23.75,193.7627 Q23.1094,193.9189 22.4063,193.9189 Q19.9063,193.9189 18.5781,192.2783 Q17.2656,190.622 17.2656,187.497 Q17.2656,184.372 18.5781,182.7158 Q19.9063,181.0595 22.4063,181.0595 Q23.1094,181.0595 23.75,181.2158 Q24.4063,181.372 24.9688,181.6689 L24.9688,184.3877 Q24.3438,183.8095 23.75,183.5439 Q23.1563,183.2627 22.5313,183.2627 Q21.1875,183.2627 20.5,184.3408 Q19.8125,185.4033 19.8125,187.497 Q19.8125,189.5908 20.5,190.6689 Q21.1875,191.7314 22.5313,191.7314 Q23.1563,191.7314 23.75,191.4658 Q24.3438,191.1845 24.9688,190.6064 L24.9688,193.3252 Z " fill="#000000"/><text fill="#D9B8FF" font-family="Helvetica" font-size="17" lengthAdjust="spacing" textLength="152" x="41" y="193.5698">autoscaling_group</text></g><!--class gcp_autoscaler--><g id="elem_gcp_autoscaler"><rect codeLine="26" fill="#3D176E" height="39.7891" id="gcp_autoscaler" rx="2.5" ry="2.5" style="stroke:#000D19;stroke-width:0.5;" width="165" x="124.5" y="328.58"/><ellipse cx="139.5" cy="348.4745" fill="#ADD1B2" rx="11" ry="11" style="stroke:#181818;stroke-width:1.0;"/><path d="M142.4688,354.1152 Q141.8906,354.412 141.25,354.5527 Q140.6094,354.7089 139.9063,354.7089 Q137.4063,354.7089 136.0781,353.0683 Q134.7656,351.412 134.7656,348.287 Q134.7656,345.162 136.0781,343.5058 Q137.4063,341.8495 139.9063,341.8495 Q140.6094,341.8495 141.25,342.0058 Q141.9063,342.162 142.4688,342.4589 L142.4688,345.1777 Q141.8438,344.5995 141.25,344.3339 Q140.6563,344.0527 140.0313,344.0527 Q138.6875,344.0527 138,345.1308 Q137.3125,346.1933 137.3125,348.287 Q137.3125,350.3808 138,351.4589 Q138.6875,352.5214 140.0313,352.5214 Q140.6563,352.5214 141.25,352.2558 Q141.8438,351.9745 142.4688,351.3964 L142.4688,354.1152 Z " fill="#000000"/><text fill="#D9B8FF" font-family="Helvetica" font-size="17" lengthAdjust="spacing" textLength="123" x="158.5" y="354.3598">gcp_autoscaler</text></g><!--class gcp_resource--><g id="elem_gcp_resource"><rect codeLine="29" fill="#3D176E" height="39.7891" id="gcp_resource" rx="2.5" ry="2.5" style="stroke:#000D19;stroke-width:0.5;" width="150" x="236" y="167.79"/><ellipse cx="251" cy="187.6845" fill="#ADD1B2" rx="11" ry="11" style="stroke:#181818;stroke-width:1.0;"/><path d="M253.9688,193.3252 Q253.3906,193.622 252.75,193.7627 Q252.1094,193.9189 251.4063,193.9189 Q248.9063,193.9189 247.5781,192.2783 Q246.2656,190.622 246.2656,187.497 Q246.2656,184.372 247.5781,182.7158 Q248.9063,181.0595 251.4063,181.0595 Q252.1094,181.0595 252.75,181.2158 Q253.4063,181.372 253.9688,181.6689 L253.9688,184.3877 Q253.3438,183.8095 252.75,183.5439 Q252.1563,183.2627 251.5313,183.2627 Q250.1875,183.2627 249.5,184.3408 Q248.8125,185.4033 248.8125,187.497 Q248.8125,189.5908 249.5,190.6689 Q250.1875,191.7314 251.5313,191.7314 Q252.1563,191.7314 252.75,191.4658 Q253.3438,191.1845 253.9688,190.6064 L253.9688,193.3252 Z " fill="#000000"/><text fill="#D9B8FF" font-family="Helvetica" font-size="17" lengthAdjust="spacing" textLength="108" x="270" y="193.5698">gcp_resource</text></g><!--class resource--><g id="elem_resource"><rect codeLine="32" fill="#3D176E" height="39.7891" id="resource" rx="2.5" ry="2.5" style="stroke:#000D19;stroke-width:0.5;" width="113" x="150.5" y="7"/><ellipse cx="165.5" cy="26.8945" fill="#ADD1B2" rx="11" ry="11" style="stroke:#181818;stroke-width:1.0;"/><path d="M168.4688,32.5352 Q167.8906,32.832 167.25,32.9727 Q166.6094,33.1289 165.9063,33.1289 Q163.4063,33.1289 162.0781,31.4883 Q160.7656,29.832 160.7656,26.707 Q160.7656,23.582 162.0781,21.9258 Q163.4063,20.2695 165.9063,20.2695 Q166.6094,20.2695 167.25,20.4258 Q167.9063,20.582 168.4688,20.8789 L168.4688,23.5977 Q167.8438,23.0195 167.25,22.7539 Q166.6563,22.4727 166.0313,22.4727 Q164.6875,22.4727 164,23.5508 Q163.3125,24.6133 163.3125,26.707 Q163.3125,28.8008 164,29.8789 Q164.6875,30.9414 166.0313,30.9414 Q166.6563,30.9414 167.25,30.6758 Q167.8438,30.3945 168.4688,29.8164 L168.4688,32.5352 Z " fill="#000000"/><text fill="#D9B8FF" font-family="Helvetica" font-size="17" lengthAdjust="spacing" textLength="71" x="184.5" y="32.7798">resource</text></g><!--reverse link resource to autoscaling_group--><g id="link_resource_autoscaling_group"><path codeLine="35" d="M184.7834,62.1506 C164.9834,92.6706 136.29,136.9 116.47,167.46 " fill="none" id="resource-backto-autoscaling_group" style="stroke:#FFAF37;stroke-width:2.0;"/><polygon fill="none" points="194.58,47.05,179.7499,58.885,189.817,65.4161,194.58,47.05" style="stroke:#FFAF37;stroke-width:2.0;"/></g><!--reverse link autoscaling_group to gcp_autoscaler--><g id="link_autoscaling_group_gcp_autoscaler"><path codeLine="36" d="M126.2166,222.9406 C146.0166,253.4606 174.71,297.69 194.53,328.25 " fill="none" id="autoscaling_group-backto-gcp_autoscaler" style="stroke:#FFAF37;stroke-width:2.0;"/><polygon fill="none" points="116.42,207.84,121.183,226.2061,131.2501,219.675,116.42,207.84" style="stroke:#FFAF37;stroke-width:2.0;"/></g><!--reverse link gcp_resource to gcp_autoscaler--><g id="link_gcp_resource_gcp_autoscaler"><path codeLine="37" d="M288.5976,222.8976 C268.6076,253.4176 239.61,297.69 219.59,328.25 " fill="none" id="gcp_resource-backto-gcp_autoscaler" style="stroke:#FFAF37;stroke-width:2.0;"/><polygon fill="none" points="298.46,207.84,283.5783,219.6101,293.6168,226.1851,298.46,207.84" style="stroke:#FFAF37;stroke-width:2.0;"/></g><!--reverse link resource to gcp_resource--><g id="link_resource_gcp_resource"><path codeLine="38" d="M229.4024,62.1076 C249.3924,92.6276 278.39,136.9 298.41,167.46 " fill="none" id="resource-backto-gcp_resource" style="stroke:#FFAF37;stroke-width:2.0;"/><polygon fill="none" points="219.54,47.05,224.3832,65.3951,234.4217,58.8201,219.54,47.05" style="stroke:#FFAF37;stroke-width:2.0;"/></g><!--SRC=[XP1BRy8m48Jl_XMME2D1KGj8lT18LNj1LUaTRUmrM4diQEqKqST_Rr8USk80nvtvj3ExMosHOr7wFI-mI94SSvas9H0KV45aTudDBV61Kg0cqwxvR8s_2IoXGFw2-ITwBQ1BV6oro0mwn-y2wmb4jY5R6NbOxmcCgoqqFg2I79nRU4ywhJm6PUGydIdL9RjB1nCvdZvWX5cII4TaD1h9yRoBt8owUlUPMEalvEFmQKlhCQePHVnJLrisH50oElJaN-pu1b9gi-7tWVP-w4G6gQMljY3jhg4Lv2wCSHu9hT-Nc4HNuNmcrRGNVhq4Cz6yZaFbhHEGrv7h1YlvDsE_HtCZolK9g8js749dAn8OwctjF3t-38V3E8l5wGUo7SnQQRr4ZtkIs1y0]--></g></svg>

<svg xmlns="http://www.w3.org/2000/svg" width="393" height="374" viewBox="0 0 393 374"><rect width="194" height="39.789" x="7" y="167.79" fill="#3D176E" rx="2.5" ry="2.5" style="stroke:#000d19;stroke-width:.5"/><circle cx="22" cy="187.685" r="11" fill="#ADD1B2" style="stroke:#181818;stroke-width:1"/><path d="M24.969 193.325q-.578.297-1.219.438-.64.156-1.344.156-2.5 0-3.828-1.64-1.312-1.657-1.312-4.782t1.312-4.781q1.328-1.656 3.828-1.656.703 0 1.344.156.656.156 1.219.453v2.719q-.625-.578-1.219-.844-.594-.281-1.219-.281-1.343 0-2.031 1.078-.687 1.062-.687 3.156t.687 3.172q.688 1.062 2.031 1.062.625 0 1.219-.265.594-.281 1.219-.86z"/><text x="41" y="193.57" fill="#D9B8FF" font-family="Helvetica" font-size="17" textLength="152">autoscaling_group</text><rect width="165" height="39.789" x="124.5" y="328.58" fill="#3D176E" rx="2.5" ry="2.5" style="stroke:#000d19;stroke-width:.5"/><circle cx="139.5" cy="348.474" r="11" fill="#ADD1B2" style="stroke:#181818;stroke-width:1"/><path d="M142.469 354.115q-.578.297-1.219.438-.64.156-1.344.156-2.5 0-3.828-1.64-1.312-1.657-1.312-4.782t1.312-4.781q1.328-1.656 3.828-1.656.703 0 1.344.156.656.156 1.219.453v2.719q-.625-.579-1.219-.844-.594-.281-1.219-.281-1.344 0-2.031 1.078-.687 1.062-.687 3.156t.687 3.172q.688 1.062 2.031 1.062.625 0 1.219-.265.594-.281 1.219-.86z"/><text x="158.5" y="354.36" fill="#D9B8FF" font-family="Helvetica" font-size="17" textLength="123">gcp_autoscaler</text><rect width="150" height="39.789" x="236" y="167.79" fill="#3D176E" rx="2.5" ry="2.5" style="stroke:#000d19;stroke-width:.5"/><circle cx="251" cy="187.685" r="11" fill="#ADD1B2" style="stroke:#181818;stroke-width:1"/><path d="M253.969 193.325q-.578.297-1.219.438-.64.156-1.344.156-2.5 0-3.828-1.64-1.312-1.657-1.312-4.782t1.312-4.781q1.328-1.656 3.828-1.656.703 0 1.344.156.656.156 1.219.453v2.719q-.625-.578-1.219-.844-.594-.281-1.219-.281-1.344 0-2.031 1.078-.687 1.062-.687 3.156t.687 3.172q.688 1.062 2.031 1.062.625 0 1.219-.265.594-.281 1.219-.86z"/><text x="270" y="193.57" fill="#D9B8FF" font-family="Helvetica" font-size="17" textLength="108">gcp_resource</text><rect width="113" height="39.789" x="150.5" y="7" fill="#3D176E" rx="2.5" ry="2.5" style="stroke:#000d19;stroke-width:.5"/><circle cx="165.5" cy="26.895" r="11" fill="#ADD1B2" style="stroke:#181818;stroke-width:1"/><path d="M168.469 32.535q-.578.297-1.219.438-.64.156-1.344.156-2.5 0-3.828-1.64-1.312-1.657-1.312-4.782t1.312-4.781q1.328-1.656 3.828-1.656.703 0 1.344.156.656.156 1.219.453v2.719q-.625-.578-1.219-.844-.594-.281-1.219-.281-1.344 0-2.031 1.078-.687 1.062-.687 3.156t.687 3.172q.688 1.062 2.031 1.062.625 0 1.219-.265.594-.281 1.219-.86z"/><text x="184.5" y="32.78" fill="#D9B8FF" font-family="Helvetica" font-size="17" textLength="71">resource</text><g fill="none"><path d="M184.783 62.15c-19.8 30.52-48.493 74.75-68.313 105.31" style="stroke:#ffaf37;stroke-width:2"/><path d="m194.58 47.05-14.83 11.835 10.067 6.531z" style="stroke:#ffaf37;stroke-width:2"/></g><g fill="none"><path d="M126.217 222.94c19.8 30.52 48.493 74.75 68.313 105.31" style="stroke:#ffaf37;stroke-width:2"/><path d="m116.42 207.84 4.763 18.366 10.067-6.531z" style="stroke:#ffaf37;stroke-width:2"/></g><path fill="none" d="M288.598 222.898c-19.99 30.52-48.988 74.792-69.008 105.352m78.87-120.41-14.882 11.77 10.039 6.575zM229.402 62.108c19.99 30.52 48.988 74.792 69.008 105.352M219.54 47.05l4.843 18.345 10.039-6.575z" style="stroke:#ffaf37;stroke-width:2"/></svg>
